!!!COM: Mozart, Wolfgang Amadeus
!!!OTL: Musikalische Würfelspiele, Kontre-Tänze
!!!SCA: K<sup>6</sup> Anh. C30.01 (K<sup>3</sup> Anh. 294d)
**kern	**kern
*staff2	*staff2
*clefF4	*clefG2
*M2/4	*M2/4
*MM110	*MM110
*>[A,A1,A,A2,B]	*>[A,A1,A,A2,B]
*>norep[A,A2,B]	*>norep[A,A2,B]
*>A	*>A
=142	=142
8C	8cc
16C	8g
16C	.
8C	8cc
8GG	8ee
=150	=150
16C	8gg
16E	.
16G	8ee
16E	.
4C	16cc
.	16ee
.	16gg
.	16ee
=131	=131
16GG	8ff
16D	.
16BB	4dd
16D	.
16GG	.
16D	.
16BB	8b
16D	.
=158	=158
4C	16cc
.	16dd
.	16ee
.	16ff
4CC	16gg
.	16ee
.	16dd
.	16cc
=149	=149
4D	8d
.	4dd
4r	.
.	16ff#
.	16aa
=156	=156
4G	8gg
.	4bb
4r	.
.	16gg
.	16dd
=143	=143
4C	8ee
.	8cc
4D	8a
.	8f#
=172	=172
*>A1	*>A1
4GG	4g 4b 4gg
16G	4r
16F	.
16E	.
16D	.
=172:|!	=172:|!
*>A2	*>A2
4GG	4g 4b 4gg
16GG	4r
16AA	.
16BB	.
16C#	.
=116||	=116||
*>B	*>B
8D	8dd
16C#	4ff#
16D	.
16Cn	.
16D	.
16C	8aa
16D	.
=28	=28
4BB 4G	16gg
.	16ff#
.	16ee
.	16dd
4r	16cc
.	16b
.	16a
.	16g
=62	=62
16C	8ee
16GG	.
16E	8ee
16C	.
16c	8gg
16G	.
16E	8ee
16C	.
=19	=19
4GG	16dd
.	16b
.	16cc
.	16a
4r	16g
.	16gg
.	16ff
.	16dd
=42	=42
4C	8cc
.	16cc
.	16ee
4r	8gg
.	16gg
.	16ee
=174	=174
16C	4cc
16E	.
16G	.
16E	.
4C	8ee
.	8gg
=95	=95
4G	8ff
.	8dd
4GG	8gg
.	8ee
=65	=65
4C	8cc
.	8cc
4CC	4cc
==	==
*-	*-
